!!!!SEGMENT: pl-kk--kk-i-40--007-001_palestrina-giovanni-pierluigi-da--missa-sacerdos-et-pontifex-kyrie.krn
!!!cenid: 16xx:1301
!!!COM: Palestrina, Giovanni Pierluigi da
!!!COM-rismid: pe1904
!!!CDT: ~1525-1594/02/02
!!!CNT: Italian
!!!OPR: Missa Sacerdos et Pontifex
!!!OTL: Kyrie
!!!OMV: 001
!!!PDT:
!!!AGN: Sacred; Mass
!!!SMS-siglum: PL-Kk
!!!SMS-shelfmark: Kk.I.40
!!!SMS-shelfwork: 007-001 M
!!!SMS-variant:
!!!SMS-altvar:
!!!NIFC-rismid: 1001154493
!!!URL-scan: http://repozytorium.nifc.pl/skany/pl-kk-nut--i-40
!!!ONB-nifc: UWAGA: części Mszy: 1. Kyrie, 2. Et in terra, 3. Sanctus, 4. Benedictus, 5. Agnus Dei. Skan 0010-0011
!!!key:
**kern	**text
*Iempty	*
*I"Baſso Ripieno.	*
*clefF3	*
*k[b-]	*
*g:	*
*M2/1	*
*met(c|)	*
=1-	=1-
!LO:TX:a:t=P:problem=w źródle znaki przykluczowe B- i BB-, zapisane jeden nad drugim	!
0G	Ky-
=2-	=2-
1G	-ri-
1F#X	-e
=3-	=3-
!LO:TX:t=P:problem=kreska pseudotaktowa	!
1G	e-
*2\right	*
2.B-\	-lei-
4A\	.
=4-	=4-
2G\	.
2F\ny	.
1E	.
=5-	=5-
!LO:TX:t=P:problem=kreska pseudotaktowa	!
1D,<	-son
2r	.
2G\	Ky-
=6-	=6-
2G\	-ri-
2C/	-e
1G	lei-
=7-	=7-
!LO:TX:t=P:problem=kreska pseudotaktowa	!
1D	-son
2r	.
*	*ij
2G\	Ky-
=8-	=8-
2G\	-ri-
2C/	-e
!LO:TX:t=P:problem=kreska pseudotaktowa	!
1G	lei-
!LO:LB:g=original	!
=9-	=9-
2D,</	-son
*	*Xij
2d\	Ky-
2d\	-ri-
2G\	-e
=10-	=10-
1A	lei-
!LO:TX:t=P:problem=kreska pseudotaktowa	!
1D,<	-son
=11-	=11-
0r	.
=12-	=12-
1r	.
2r	.
2d\	Ky-
=13-	=13-
2d\	-ri-
!LO:TX:t=P:problem=kreska pseudotaktowa	!
2G\	-e
1c	.
=14-	=14-
1A	lei-
!LO:TX:t=P:problem=kreska pseudotaktowa	!
0D	-son
=15-	=15-
0r	.
=16-	=16-
!LO:TX:t=P:problem=kreska pseudotaktowa	!
1r	.
=17-	=17-
0D	Ky-
=18-	=18-
1D	-ri-
1C	-e
=19-	=19-
2.D/	.
!LO:TX:t=P:problem=kreska pseudotaktowa	!
4E/	.
2F\	e-
1G\	-lei-
=20-	=20-
2F\	.
1E-X	.
=21-	=21-
1D	.
!LO:TX:t=P:problem=kreska pseudotaktowa	!
0G	-son
=22-	=22-
0r	.
=23-	=23-
2r	.
*	*ij
!LO:TX:t=P:problem=kreska pseudotaktowa	!
2d\	Ky-
=24-	=24-
2d\	-ri-
2G\	-e
1d	e-
=25-	=25-
2c\	-lei-
2B-\	.
!LO:TX:t=P:problem=kreska pseudotaktowa	!
1A	-son
*	*Xij
!LO:LB:g=original	!
=26-	=26-
2.D/	Ky-
4E/ny	-ri-
2F\	-e
!LO:TX:t=P:problem=kreska pseudotaktowa	!
[<2G\	e-
=27-	=27-
2G\]	.
2E-X/	.
*lig	*
1D	-lei-
=28-	=28-
1C	.
*Xlig	*
1D	.
=29-	=29-
!LO:TX:t=P:problem=podwójna kreska pseudotaktowa	!
0G;>	-son
=30||-	=30||-
*M2/1	*
*met(c|)	*
(>1F	Chri-
1G)	.
=31-	=31-
2A,<\	-ste
!LO:TX:t=P:problem=kreska pseudotaktowa	!
2A\	e-
2F\	-lei-
1G\	.
=32-	=32-
!LO:TX:t=P:problem=kreska pseudotaktowa	!
2A\	.
2.B-\	.
4A\	.
=33-	=33-
1G	.
!LO:TX:t=P:problem=kreska pseudotaktowa	!
1F	-son
=34-	=34-
00r	.
=35-	=35-
.	.
=36-	=36-
!LO:TX:t=P:problem=kreska pseudotaktowa	!
1r	.
2r	.
*	*ij
1B-\	Chri-
=37-	=37-
!LO:TX:t=P:problem=kreska pseudotaktowa	!
2A\	-ste
2G\	e-
4E-X/	-lei-
!LO:TX:t=P:problem=kreska pseudotaktowa	!
4F/	.
=38-	=38-
4G\	.
4A\	.
1B-	.
2A\	.
=39-	=39-
!LO:TX:t=P:problem=kreska pseudotaktowa	!
1B-,<	-son
*	*Xij
!LO:TX:t=P:problem=kreska pseudotaktowa	!
00r	.
=40-	=40-
.	.
!LO:LB:g=original	!
=41-	=41-
1BB-	Chri-
=42-	=42-
1C	.
!LO:TX:t=P:problem=kreska pseudotaktowa	!
1D	-ste
=43-	=43-
2BB-/	e-
2C/	.
1D	.
=44-	=44-
0E-X	.
=45-	=45-
!LO:TX:t=P:problem=kreska pseudotaktowa	!
1D	.
2.B-\	-lei-
4A\	.
=46-	=46-
1G	.
!LO:TX:t=P:problem=kreska pseudotaktowa	!
1F	-son
=47-	=47-
00r	.
=48-	=48-
.	.
=49-	=49-
00r	.
=50-	=50-
.	.
=51-	=51-
!LO:TX:t=P:problem=kreska pseudotaktowa	!
0r	.
=52-	=52-
1F	Chri-
1G	.
=53-	=53-
!LO:TX:t=P:problem=kreska pseudotaktowa	!
1A	-ste
2F\	e-
2G\	.
=54-	=54-
!LO:TX:t=P:problem=kreska pseudotaktowa	!
1A	.
0B-	-lei-
=55-	=55-
.	.
1A,<	-son
=56-	=56-
2.D/	X-
!LO:TX:t=P:problem=kreska pseudotaktowa	!
4C/	-te
4D/	.
4E/ny	.
4F/	e-
4G/	.
=57-	=57-
2A\	-lei-
2D/	.
1A	-son
=58-	=58-
!LO:TX:t=P:problem=podwójna kreska pseudotaktowa	!
0D;ny	.
!LO:PB:g=original	!
=59||-	=59||-
*M2/1	*
*met(c|)	*
0r	.
=60-	=60-
!LO:TX:t=P:problem=kreska pseudotaktowa	!
1r	.
0B-	Ky-
=61-	=61-
1G	-ri-
=62-	=62-
!LO:TX:t=P:problem=kreska pseudotaktowa	!
1F	-e
1B-	e-
=63-	=63-
!LO:TX:t=P:problem=kreska pseudotaktowa	!
1E-X	.
2.F/	-lei-
4E-/	.
=64-	=64-
2D/	.
!LO:TX:t=P:problem=kreska pseudotaktowa	!
2C/	.
2F\	.
2G\	.
=65-	=65-
!LO:TX:t=P:problem=kreska pseudotaktowa	!
1D,<	-son
*	*ij
1.E-X	Ky-
=66-	=66-
2D/	-ri-
1C	-e
=67-	=67-
1BB-	e-
2F/	-lei-
2BB-/	.
=68-	=68-
!LO:TX:t=P:problem=kreska pseudotaktowa	!
1F	-son
*	*Xij
0r	.
=69-	=69-
!LO:TX:t=P:problem=kreska pseudotaktowa	!
1r	.
=70-	=70-
0B-	Ky-
=71-	=71-
1c	-ri-
!LO:TX:t=P:problem=kreska pseudotaktowa	!
1d	-e
=72-	=72-
2c\	.
1B-	e-
2A\	.
=73-	=73-
2B-\	.
1c	-lei-
2B-\	.
=74-	=74-
*custos:G	*
!LO:TX:t=P:problem=kreska pseudotaktowa	!
1A	.
!LO:LB:g=original	!
1G,<	son
=75-	=75-
1D	Ky-
2E/ny	.
2F/	-ri-
=76-	=76-
2G\	-e
!LO:TX:t=P:problem=kreska pseudotaktowa	!
2A\	.
1B-	.
=77-	=77-
1A	e-
2G\	-lei-
2F\	.
=78-	=78-
!LO:TX:t=P:problem=kreska pseudotaktowa	!
1G,<	-son
0r	.
=79-	=79-
2r	.
*	*ij
2D/	Ky-
=80-	=80-
2G\	-ri-
!LO:TX:t=P:problem=kreska pseudotaktowa	!
2G\	-e
2F/	e-
2E/	-lei-
=81-	=81-
1D	.
!LO:TX:t=P:problem=kreska pseudotaktowa	!
1C	-son
*	*Xij
=82-	=82-
!LO:TX:t=P:problem=kreska pseudotaktowa	!
1r	.
1G	Ky-
=83-	=83-
2c\	-ri-
2c\	-e
2B-\	e-
2A\	-lei-
=84-	=84-
!LO:TX:t=P:problem=kreska pseudotaktowa	!
1G	-son
0r	.
=85-	=85-
!LO:TX:t=P:problem=kreska pseudotaktowa	!
1r	.
=86-	=86-
*	*ij
1D	Ky-
2G\	-ri-
2G\	-e
=87-	=87-
2F/	e-
2E/	-lei-
0.D	.
=88-	=88-
.	.
=89-	=89-
!LO:TX:t=P:problem=końcowa kreska pseudotaktowa	!
0G;>	-son
*	*Xij
==-	==-
*-	*-
!!!RDF**kern: > = above
!!!RDF**kern: < = below
!!!EED: Antoni Szymański
!!!EST: 2021-07-31
!!!AIN: 1 empty
!!!ENC: Tomasz Grochalski
!!!END: 2021-07-04
